X:185
T: EI SO SAGT MIRS FREI, WAS DOCH SCHOENER SEI
N: Z0184
O: Europa, Mitteleuropa, Deutschland
R: Soldaten -, Jaeger - Lied
M: 3/8
L: 1/16
K: C
 | C4G,2 | C4G,2 | C6 |
D4G,2 | D4G,2 | D6 |
E4C2 | G4E2 | D6 |
E3CEC | G4E2 | D6 |
G,4G,2 | G4G,2 | G,6 |
G,4G,2 | G4G,2 | G,6 |
C3G,EC | G4E2 | F4D2 | C6

@@@ Tune index: 9943
